X: 32603
T: Planxty O'Rourke
R: jig
M: 6/8
K: Gmajor
D2|G2 GABc|d2 B2 G2|c2 c2 c2|cd e2 c2|d2 B2 d2|ef g2 e2|fg a2 f2|g4 d2|
g2 a2 b2|a2 b2 g2|f2 g2 e2|d2 c2 B2|c2 A2 d2|B2 G2 d2|e3e e2|f4 d2|
g3g g2|g2 B2 d2|g2 f2 g2|a2 f2 d2|e2 e2 e2|ef g2e2|d2 B2 G2|G4 D2|
D2 G2 G2|G4 D2|G2 GABc|d2 B2 G2|E2 A2 A2|A4 E2|A2 ABcd|e2 c2 A2|
d3d d2|d2 e2 c2|B3B B2|B2 c2 A2|G3G G2|G4 A2|G2 F2 E2|D4 D2|
D2 E2 F2|G4 D2|G2 F2 G2|A2 F2 D2|d4 c2|Bc d2 G2|FG A2 D2|G4||

